X:14
T:Vous brillez seule. [FJ14]
S:Festin joyeux.  Music page 8.
Z:transcribed by Eric Conrad, 2021.
N:NB 3/4 time marked as "3".
N:NB Repeat marks were added at beginning and end.
N:NB The MS repeat mark is 4 vertical dots enclosed by bars on both sides.
N:NB The plus signs seem to indicate some kind of roll or trill.
M:3/4
L:1/8
K:Am % harmonic minor, no sharps or flats in key signature, ending on A
|: z2 zAAA | e3 dcB | c>B Acde | "^+"B2 c2 e2 |
"^+"A2 A2 ^GA | "^+"^G6 :: z2 z2 zB | A4 de | f4 fd |
e>dce e2 | A z/d/ d3B | c4 de | c2 "^+"B3A | A6 :|

